X:205
T: Hill Top
S: "Collection of the Dance Music of Ireland" (P. McNulty)
Z: B.Black
L: 1/8
M: 4/4
R: reel
K: Ador
d/B/ |: A2 AA B2 AG | EGGF G2 AG | EA (3AAA BABd |\
egdB BAdb |
A2 AA B2 AG | EGGF G2 AB | c2 cA BABc | dBGA BA A2 :|
ABcd egdB | GBdB d2 (3efg | a2 ed egdB | GBdB BA A2 |
a2 ed egdB | GBdB d2 ef | gfga gfed | gbaf gedB :|
